packages/ffe-icons/icons/open/300/sm/add_comment.svg

<svg xmlns="http://www.w3.org/2000/svg" height="20" viewBox="0 -960 960 960" width="20"><path d="M454.001-526.001V-420q0 11.069 7.404 18.534 7.405 7.465 18.384 7.465 10.98 0 18.595-7.465 7.615-7.465 7.615-18.534v-106.001H612q11.069 0 18.534-7.404 7.465-7.405 7.465-18.384 0-10.98-7.465-18.595-7.465-7.615-18.534-7.615H505.999V-684q0-11.069-7.404-18.534-7.405-7.465-18.384-7.465-10.98 0-18.595 7.465-7.615 7.465-7.615 18.534v106.001H348q-11.069 0-18.534 7.404-7.465 7.405-7.465 18.384 0 10.98 7.465 18.595 7.465 7.615 18.534 7.615h106.001Zm-212.462 266-70.959 70.958q-15.194 15.194-34.886 6.942-19.693-8.252-19.693-29.747v-567.843q0-27.008 18.65-45.658 18.65-18.65 45.658-18.65h599.382q27.008 0 45.658 18.65 18.65 18.65 18.65 45.658v455.382q0 27.008-18.65 45.658-18.65 18.65-45.658 18.65H241.539ZM220.001-312h559.69q4.616 0 8.463-3.846 3.846-3.847 3.846-8.463v-455.382q0-4.616-3.846-8.463-3.847-3.846-8.463-3.846H180.309q-4.616 0-8.463 3.846-3.846 3.847-3.846 8.463v520.076L220.001-312ZM168-312v-480V-312Z"/></svg>

<svg xmlns="http://www.w3.org/2000/svg" height="20" viewBox="0 -960 960 960" width="20"><path d="M454-526v106q0 11.07 7.41 18.53 7.4 7.47 18.38 7.47 10.98 0 18.59-7.47Q506-408.93 506-420v-106h106q11.07 0 18.53-7.41 7.47-7.4 7.47-18.38 0-10.98-7.47-18.59Q623.07-578 612-578H506v-106q0-11.07-7.41-18.53-7.4-7.47-18.38-7.47-10.98 0-18.59 7.47Q454-695.07 454-684v106H348q-11.07 0-18.53 7.41-7.47 7.4-7.47 18.38 0 10.98 7.47 18.59Q336.93-526 348-526h106ZM241.54-260l-70.96 70.96q-15.19 15.19-34.89 6.94Q116-190.35 116-211.85v-567.84q0-27.01 18.65-45.66Q153.3-844 180.31-844h599.38q27.01 0 45.66 18.65Q844-806.7 844-779.69v455.38q0 27.01-18.65 45.66Q806.7-260 779.69-260H241.54ZM220-312h559.69q4.62 0 8.46-3.85 3.85-3.84 3.85-8.46v-455.38q0-4.62-3.85-8.46-3.84-3.85-8.46-3.85H180.31q-4.62 0-8.46 3.85-3.85 3.84-3.85 8.46v520.08L220-312Zm-52 0v-480 480Z"/></svg>
